X: 38914
T: Superfly
R: reel
M: 4/4
K: Bminor
|:Bf~f2 gfeg|~f3g fedf|~e3f edcd|ed (3cBA BAFA|
Bf~f2 gfeg|~f3g fedf|efdf edcd|ed (3cBA B2BA:|
|:Bcde f2Bc|defd g2Bc|defd aa fa|gfed ed (3cBA|
Bcde f2Bc|de (3fed g2Bc|defd aa fa|gfed ed (3cBA:|

